static/img/kroki/66c814ff9fbb9557240acb4ece59cf44.svg

<?xml version="1.0" encoding="us-ascii" standalone="no"?><svg xmlns="http://www.w3.org/2000/svg" xmlns:xlink="http://www.w3.org/1999/xlink" contentStyleType="text/css" height="252px" preserveAspectRatio="none" style="width:305px;height:252px;" version="1.1" viewBox="0 0 305 252" width="305px" zoomAndPan="magnify"><defs/><g><!--class aws_cloudwatch_alarm--><g id="elem_aws_cloudwatch_alarm"><rect codeLine="22" fill="#3D176E" height="39.7891" id="aws_cloudwatch_alarm" rx="2.5" ry="2.5" style="stroke:#000D19;stroke-width:0.5;" width="237" x="34" y="206.58"/><ellipse cx="49" cy="226.4745" fill="#ADD1B2" rx="11" ry="11" style="stroke:#181818;stroke-width:1.0;"/><path d="M51.9688,232.1152 Q51.3906,232.412 50.75,232.5527 Q50.1094,232.7089 49.4063,232.7089 Q46.9063,232.7089 45.5781,231.0683 Q44.2656,229.412 44.2656,226.287 Q44.2656,223.162 45.5781,221.5058 Q46.9063,219.8495 49.4063,219.8495 Q50.1094,219.8495 50.75,220.0058 Q51.4063,220.162 51.9688,220.4589 L51.9688,223.1777 Q51.3438,222.5995 50.75,222.3339 Q50.1563,222.0527 49.5313,222.0527 Q48.1875,222.0527 47.5,223.1308 Q46.8125,224.1933 46.8125,226.287 Q46.8125,228.3808 47.5,229.4589 Q48.1875,230.5214 49.5313,230.5214 Q50.1563,230.5214 50.75,230.2558 Q51.3438,229.9745 51.9688,229.3964 L51.9688,232.1152 Z " fill="#000000"/><text fill="#D9B8FF" font-family="Helvetica" font-size="17" lengthAdjust="spacing" textLength="195" x="68" y="232.3598">aws_cloudwatch_alarm</text></g><!--class aws_cloudwatch_log_group--><g id="elem_aws_cloudwatch_log_group"><rect codeLine="24" fill="#3D176E" height="39.7891" id="aws_cloudwatch_log_group" rx="2.5" ry="2.5" style="stroke:#000D19;stroke-width:0.5;" width="270" x="17.5" y="7"/><ellipse cx="32.5" cy="26.8945" fill="#ADD1B2" rx="11" ry="11" style="stroke:#181818;stroke-width:1.0;"/><path d="M35.4688,32.5352 Q34.8906,32.832 34.25,32.9727 Q33.6094,33.1289 32.9063,33.1289 Q30.4063,33.1289 29.0781,31.4883 Q27.7656,29.832 27.7656,26.707 Q27.7656,23.582 29.0781,21.9258 Q30.4063,20.2695 32.9063,20.2695 Q33.6094,20.2695 34.25,20.4258 Q34.9063,20.582 35.4688,20.8789 L35.4688,23.5977 Q34.8438,23.0195 34.25,22.7539 Q33.6563,22.4727 33.0313,22.4727 Q31.6875,22.4727 31,23.5508 Q30.3125,24.6133 30.3125,26.707 Q30.3125,28.8008 31,29.8789 Q31.6875,30.9414 33.0313,30.9414 Q33.6563,30.9414 34.25,30.6758 Q34.8438,30.3945 35.4688,29.8164 L35.4688,32.5352 Z " fill="#000000"/><text fill="#D9B8FF" font-family="Helvetica" font-size="17" lengthAdjust="spacing" textLength="228" x="51.5" y="32.7798">aws_cloudwatch_log_group</text></g><!--class aws_cloudwatch_metric_filter--><g id="elem_aws_cloudwatch_metric_filter"><rect codeLine="26" fill="#3D176E" height="39.7891" id="aws_cloudwatch_metric_filter" rx="2.5" ry="2.5" style="stroke:#000D19;stroke-width:0.5;" width="291" x="7" y="106.79"/><ellipse cx="22" cy="126.6845" fill="#ADD1B2" rx="11" ry="11" style="stroke:#181818;stroke-width:1.0;"/><path d="M24.9688,132.3252 Q24.3906,132.622 23.75,132.7627 Q23.1094,132.9189 22.4063,132.9189 Q19.9063,132.9189 18.5781,131.2783 Q17.2656,129.622 17.2656,126.497 Q17.2656,123.372 18.5781,121.7158 Q19.9063,120.0595 22.4063,120.0595 Q23.1094,120.0595 23.75,120.2158 Q24.4063,120.372 24.9688,120.6689 L24.9688,123.3877 Q24.3438,122.8095 23.75,122.5439 Q23.1563,122.2627 22.5313,122.2627 Q21.1875,122.2627 20.5,123.3408 Q19.8125,124.4033 19.8125,126.497 Q19.8125,128.5908 20.5,129.6689 Q21.1875,130.7314 22.5313,130.7314 Q23.1563,130.7314 23.75,130.4658 Q24.3438,130.1845 24.9688,129.6064 L24.9688,132.3252 Z " fill="#000000"/><text fill="#D9B8FF" font-family="Helvetica" font-size="17" lengthAdjust="spacing" textLength="249" x="41" y="132.5698">aws_cloudwatch_metric_filter</text></g><!--link aws_cloudwatch_log_group to aws_cloudwatch_metric_filter--><g id="link_aws_cloudwatch_log_group_aws_cloudwatch_metric_filter"><path codeLine="28" d="M152.5,47.22 C152.5,62.49 152.5,83.92 152.5,100.53 " fill="none" id="aws_cloudwatch_log_group-to-aws_cloudwatch_metric_filter" style="stroke:#1A83AF;stroke-width:2.0;"/><polygon fill="#1A83AF" points="152.5,105.41,156.5,96.41,152.5,100.41,148.5,96.41,152.5,105.41" style="stroke:#1A83AF;stroke-width:2.0;"/></g><!--link aws_cloudwatch_metric_filter to aws_cloudwatch_alarm--><g id="link_aws_cloudwatch_metric_filter_aws_cloudwatch_alarm"><path codeLine="29" d="M152.5,147.01 C152.5,162.28 152.5,183.71 152.5,200.32 " fill="none" id="aws_cloudwatch_metric_filter-to-aws_cloudwatch_alarm" style="stroke:#1A83AF;stroke-width:2.0;"/><polygon fill="#1A83AF" points="152.5,205.2,156.5,196.2,152.5,200.2,148.5,196.2,152.5,205.2" style="stroke:#1A83AF;stroke-width:2.0;"/></g><!--SRC=[XP9TQy8m58Rl_HK1hmMxigatWoh8TYDZxcwCSanER30VvIIkkB7_FglRo5fRR_C-l1-754eWGrE60pDeDaX-u7VAba1WM4RageNJZjXGIf3ff2akdGrNWHKOP0-etp4e3atYfL1yPz5xTXD9S-2xBRcz5MVxG63zKK8R8cgXmVii15ARVS2eZ9Xjfb8soQRfC1N9v0vRc2E1z8ECnsEHp9h8rQZUtN_4MdqWI-AZhLp0LirMn8dgRLaJKSdMq5-zi-CJ2A7ibjr6Ry_dJcIH_hsl2n2kgca9siSnFY2X2uSI5wrLE9iAERa8FtR1lBuSWyhdNBkzg23m8WSDPDZduEkohDqshxtARiJWyGlnN2fzh732EZr6hyCacwRPycrqtsipwCteipdj-GO0]--></g></svg>

<svg xmlns="http://www.w3.org/2000/svg" width="305" height="252" preserveAspectRatio="none" style="width:305px;height:252px"><rect width="237" height="39.789" x="34" y="206.58" fill="#3D176E" rx="2.5" ry="2.5" style="stroke:#000d19;stroke-width:.5"/><circle cx="49" cy="226.475" r="11" fill="#ADD1B2" style="stroke:#181818;stroke-width:1"/><path d="M51.969 232.115q-.578.297-1.219.438-.64.156-1.344.156-2.5 0-3.828-1.64-1.312-1.657-1.312-4.782t1.312-4.781q1.328-1.656 3.828-1.656.703 0 1.344.156.656.156 1.219.453v2.719q-.625-.578-1.219-.844-.594-.281-1.219-.281-1.343 0-2.031 1.078-.688 1.062-.688 3.156 0 2.094.688 3.172.688 1.062 2.031 1.062.625 0 1.219-.265.594-.281 1.219-.86v2.72Z"/><text x="68" y="232.36" fill="#D9B8FF" font-family="Helvetica" font-size="17" textLength="195">aws_cloudwatch_alarm</text><rect width="270" height="39.789" x="17.5" y="7" fill="#3D176E" rx="2.5" ry="2.5" style="stroke:#000d19;stroke-width:.5"/><circle cx="32.5" cy="26.895" r="11" fill="#ADD1B2" style="stroke:#181818;stroke-width:1"/><path d="M35.469 32.535q-.578.297-1.219.438-.64.156-1.344.156-2.5 0-3.828-1.64-1.312-1.657-1.312-4.782t1.312-4.781q1.328-1.656 3.828-1.656.703 0 1.344.156.656.156 1.219.453v2.719q-.625-.578-1.219-.844-.594-.281-1.219-.281-1.343 0-2.031 1.078-.688 1.062-.688 3.156 0 2.094.688 3.172.688 1.062 2.031 1.062.625 0 1.219-.265.594-.281 1.219-.86v2.72Z"/><text x="51.5" y="32.78" fill="#D9B8FF" font-family="Helvetica" font-size="17" textLength="228">aws_cloudwatch_log_group</text><rect width="291" height="39.789" x="7" y="106.79" fill="#3D176E" rx="2.5" ry="2.5" style="stroke:#000d19;stroke-width:.5"/><circle cx="22" cy="126.684" r="11" fill="#ADD1B2" style="stroke:#181818;stroke-width:1"/><path d="M24.969 132.325q-.578.297-1.219.438-.64.156-1.344.156-2.5 0-3.828-1.64-1.312-1.657-1.312-4.782t1.312-4.781q1.328-1.656 3.828-1.656.703 0 1.344.156.656.156 1.219.453v2.719q-.625-.579-1.219-.844-.594-.281-1.219-.281-1.343 0-2.031 1.078-.688 1.062-.688 3.156 0 2.094.688 3.172.688 1.062 2.031 1.062.625 0 1.219-.265.594-.281 1.219-.86v2.72Z"/><text x="41" y="132.57" fill="#D9B8FF" font-family="Helvetica" font-size="17" textLength="249">aws_cloudwatch_metric_filter</text><path fill="none" d="M152.5 47.22v53.31" style="stroke:#1a83af;stroke-width:2"/><path fill="#1A83AF" d="m152.5 105.41 4-9-4 4-4-4 4 9z" style="stroke:#1a83af;stroke-width:2"/><path fill="none" d="M152.5 147.01v53.31" style="stroke:#1a83af;stroke-width:2"/><path fill="#1A83AF" d="m152.5 205.2 4-9-4 4-4-4 4 9z" style="stroke:#1a83af;stroke-width:2"/></svg>
